X: 2
T: Mrs. Halpin's Favourite
R: reel
M: 4/4
L: 1/8
K: Gmaj
B2 AG EGDG|EAAG ABGA|B2AG EGDG|EG ~G2 EG ~G2:|
BGAG EGDG|EAAG (3ABA GA|BGAG EGDG|EG (3GGG EGG:|
G2 Bd egdB|GBdB cA ~A2|G2 Bd edBc|d2 Ac B2AB|
G2 (3Bcd eddg|edBG AGEF|G2 Bd eddg|edBG (3ABA GE|
G2 Bd gedB|GBdB cA ~A2|G2 Bd edef|~g3 a gedc||
G2 (3Bcd eddg|edBG AGEG|Bd ~d2 eg ~g2|agbg aged||

